src/images/global/icons/social/instagram-line.svg

<?xml version="1.0" encoding="UTF-8"?>
<svg width="48px" height="48px" viewBox="0 0 48 48" version="1.1" xmlns="http://www.w3.org/2000/svg" xmlns:xlink="http://www.w3.org/1999/xlink">
    <!-- Generator: Sketch 46.2 (44496) - http://www.bohemiancoding.com/sketch -->
    <title>icon/Social/instagram-line</title>
    <desc>Created with Sketch.</desc>
    <defs>
        <path d="M16,0 C24.8366154,0 32,7.16338462 32,16 C32,24.8366154 24.8366154,32 16,32 C7.16338462,32 0,24.8366154 0,16 C0,7.16338462 7.16338462,0 16,0 Z M16,30.1538462 C23.8044615,30.1538462 30.1538462,23.8044615 30.1538462,16 C30.1538462,8.19553846 23.8044615,1.84615385 16,1.84615385 C8.19553846,1.84615385 1.84615385,8.19553846 1.84615385,16 C1.84615385,23.8044615 8.19553846,30.1538462 16,30.1538462 Z M15.9974921,9.44603175 C18.1328889,9.44603175 18.3858413,9.45419048 19.2291429,9.49266667 C20.0088889,9.52822222 20.4323492,9.65850794 20.7141587,9.76803175 C21.0874603,9.91311111 21.353873,10.0864127 21.6337143,10.3662857 C21.9135873,10.646127 22.0868889,10.9125397 22.2319683,11.2858413 C22.3414921,11.5676508 22.4717778,11.9911111 22.5073333,12.7708571 C22.5458095,13.6141587 22.5539683,13.8671111 22.5539683,16.0025397 C22.5539683,18.1379365 22.5458095,18.3908889 22.5073333,19.2341905 C22.4717778,20.0139365 22.3414921,20.4373968 22.2319683,20.7192063 C22.0868889,21.0925079 21.9135873,21.3589206 21.6337143,21.6387619 C21.353873,21.9186349 21.0874603,22.0919365 20.7141587,22.2370159 C20.4323492,22.3465397 20.0088889,22.4768254 19.2291429,22.512381 C18.3859683,22.5508571 18.1330476,22.5590159 15.9974921,22.5590159 C13.8619048,22.5590159 13.6090159,22.5508571 12.7658095,22.512381 C11.9860635,22.4768254 11.5626032,22.3465397 11.2807937,22.2370159 C10.9074921,22.0919365 10.6410794,21.9186349 10.3612381,21.6387619 C10.0813968,21.3589206 9.90806349,21.0925079 9.76298413,20.7192063 C9.65346032,20.4373968 9.5231746,20.0139365 9.48761905,19.2341905 C9.44914286,18.3908889 9.44098413,18.1379365 9.44098413,16.0025397 C9.44098413,13.8671111 9.44914286,13.6141587 9.48761905,12.7708571 C9.5231746,11.9911111 9.65346032,11.5676508 9.76298413,11.2858413 C9.90806349,10.9125397 10.0813651,10.646127 10.3612381,10.3662857 C10.6410794,10.0864127 10.9074921,9.91311111 11.2807937,9.76803175 C11.5626032,9.65850794 11.9860635,9.52822222 12.7658095,9.49266667 C13.6091111,9.45419048 13.8620635,9.44603175 15.9974921,9.44603175 Z M15.9974921,11.8957143 C13.7293333,11.8957143 11.8906667,13.734381 11.8906667,16.0025397 C11.8906667,18.2706667 13.7293333,20.1093333 15.9974921,20.1093333 C18.265619,20.1093333 20.1042857,18.2706667 20.1042857,16.0025397 C20.1042857,13.734381 18.265619,11.8957143 15.9974921,11.8957143 Z M21.226254,11.7334603 C21.226254,11.2034286 20.7965714,10.773746 20.2665397,10.773746 C19.7365397,10.773746 19.3068571,11.2034286 19.3068571,11.7334603 C19.3068571,12.2634921 19.7365397,12.6931429 20.2665397,12.6931429 C20.7965714,12.6931429 21.226254,12.2634921 21.226254,11.7334603 Z M15.9974921,18.6683492 C14.5251746,18.6683492 13.3316508,17.4748254 13.3316508,16.0025397 C13.3316508,14.5302222 14.5251746,13.3366984 15.9974921,13.3366984 C17.4697778,13.3366984 18.6633016,14.5302222 18.6633016,16.0025397 C18.6633016,17.4748254 17.4697778,18.6683492 15.9974921,18.6683492 Z" id="path-1"></path>
    </defs>
    <g id="Symbols" stroke="none" stroke-width="1" fill="none" fill-rule="evenodd">
        <g id="icon/Social/instagram-line">
            <g id="Icon" transform="translate(8.000000, 8.000000)">
                <mask id="mask-2" fill="white">
                    <use xlink:href="#path-1"></use>
                </mask>
                <use id="Mask" fill="#384048" xlink:href="#path-1"></use>
                <g id="Color/Grayscale/Night-Sky" mask="url(#mask-2)" fill="#111111">
                    <g transform="translate(-8.000000, -8.000000)" id="Swatch">
                        <rect x="0" y="0" width="48" height="48"></rect>
                    </g>
                </g>
            </g>
        </g>
    </g>
</svg>

<?xml version="1.0" encoding="utf-8"?>
<!-- Generator: Adobe Illustrator 21.0.2, SVG Export Plug-In . SVG Version: 6.00 Build 0)  -->
<svg version="1.1" id="icon_x2F_Social_x2F_instagram-line-Layer_1" xmlns="http://www.w3.org/2000/svg" xmlns:xlink="http://www.w3.org/1999/xlink" x="0px" y="0px"
	 viewBox="0 0 48 48" style="enable-background:new 0 0 48 48;" xml:space="preserve">
<title>icon/Social/instagram-line</title>
<desc>Created with Sketch.</desc>
<g id="icon_x2F_Social_x2F_instagram-line-Symbols">
	<g id="icon_x2F_Social_x2F_instagram-line">
		<g id="icon_x2F_Social_x2F_instagram-line-Icon" transform="translate(8.000000, 8.000000)">
			<g id="icon_x2F_Social_x2F_instagram-line-Mask">
				<path id="icon_x2F_Social_x2F_instagram-line-path-1_1_" style="fill:#384048;" d="M16,0c8.8,0,16,7.2,16,16s-7.2,16-16,16S0,24.8,0,16S7.2,0,16,0z M16,30.2
					c7.8,0,14.2-6.3,14.2-14.2S23.8,1.8,16,1.8S1.8,8.2,1.8,16S8.2,30.2,16,30.2z M16,9.4c2.1,0,2.4,0,3.2,0c0.8,0,1.2,0.2,1.5,0.3
					c0.4,0.1,0.6,0.3,0.9,0.6c0.3,0.3,0.5,0.5,0.6,0.9c0.1,0.3,0.2,0.7,0.3,1.5c0,0.8,0,1.1,0,3.2c0,2.1,0,2.4,0,3.2
					c0,0.8-0.2,1.2-0.3,1.5c-0.1,0.4-0.3,0.6-0.6,0.9c-0.3,0.3-0.5,0.5-0.9,0.6c-0.3,0.1-0.7,0.2-1.5,0.3c-0.8,0-1.1,0-3.2,0
					c-2.1,0-2.4,0-3.2,0c-0.8,0-1.2-0.2-1.5-0.3c-0.4-0.1-0.6-0.3-0.9-0.6c-0.3-0.3-0.5-0.5-0.6-0.9c-0.1-0.3-0.2-0.7-0.3-1.5
					c0-0.8,0-1.1,0-3.2c0-2.1,0-2.4,0-3.2c0-0.8,0.2-1.2,0.3-1.5c0.1-0.4,0.3-0.6,0.6-0.9c0.3-0.3,0.5-0.5,0.9-0.6
					c0.3-0.1,0.7-0.2,1.5-0.3C13.6,9.5,13.9,9.4,16,9.4z M16,11.9c-2.3,0-4.1,1.8-4.1,4.1c0,2.3,1.8,4.1,4.1,4.1
					c2.3,0,4.1-1.8,4.1-4.1C20.1,13.7,18.3,11.9,16,11.9z M21.2,11.7c0-0.5-0.4-1-1-1c-0.5,0-1,0.4-1,1c0,0.5,0.4,1,1,1
					C20.8,12.7,21.2,12.3,21.2,11.7z M16,18.7c-1.5,0-2.7-1.2-2.7-2.7c0-1.5,1.2-2.7,2.7-2.7c1.5,0,2.7,1.2,2.7,2.7
					C18.7,17.5,17.5,18.7,16,18.7z"/>
			</g>
			<defs>
				<filter id="icon_x2F_Social_x2F_instagram-line-Adobe_OpacityMaskFilter" filterUnits="userSpaceOnUse" x="-8" y="-8" width="48" height="48">
					<feColorMatrix  type="matrix" values="1 0 0 0 0  0 1 0 0 0  0 0 1 0 0  0 0 0 1 0"/>
				</filter>
			</defs>
			<mask maskUnits="userSpaceOnUse" x="-8" y="-8" width="48" height="48" id="icon_x2F_Social_x2F_instagram-line-mask-2">
				<g style="filter:url(#icon_x2F_Social_x2F_instagram-line-Adobe_OpacityMaskFilter);">
					<path id="icon_x2F_Social_x2F_instagram-line-path-1" style="fill:#FFFFFF;" d="M16,0c8.8,0,16,7.2,16,16s-7.2,16-16,16S0,24.8,0,16S7.2,0,16,0z M16,30.2
						c7.8,0,14.2-6.3,14.2-14.2S23.8,1.8,16,1.8S1.8,8.2,1.8,16S8.2,30.2,16,30.2z M16,9.4c2.1,0,2.4,0,3.2,0c0.8,0,1.2,0.2,1.5,0.3
						c0.4,0.1,0.6,0.3,0.9,0.6c0.3,0.3,0.5,0.5,0.6,0.9c0.1,0.3,0.2,0.7,0.3,1.5c0,0.8,0,1.1,0,3.2c0,2.1,0,2.4,0,3.2
						c0,0.8-0.2,1.2-0.3,1.5c-0.1,0.4-0.3,0.6-0.6,0.9c-0.3,0.3-0.5,0.5-0.9,0.6c-0.3,0.1-0.7,0.2-1.5,0.3c-0.8,0-1.1,0-3.2,0
						c-2.1,0-2.4,0-3.2,0c-0.8,0-1.2-0.2-1.5-0.3c-0.4-0.1-0.6-0.3-0.9-0.6c-0.3-0.3-0.5-0.5-0.6-0.9c-0.1-0.3-0.2-0.7-0.3-1.5
						c0-0.8,0-1.1,0-3.2c0-2.1,0-2.4,0-3.2c0-0.8,0.2-1.2,0.3-1.5c0.1-0.4,0.3-0.6,0.6-0.9c0.3-0.3,0.5-0.5,0.9-0.6
						c0.3-0.1,0.7-0.2,1.5-0.3C13.6,9.5,13.9,9.4,16,9.4z M16,11.9c-2.3,0-4.1,1.8-4.1,4.1c0,2.3,1.8,4.1,4.1,4.1
						c2.3,0,4.1-1.8,4.1-4.1C20.1,13.7,18.3,11.9,16,11.9z M21.2,11.7c0-0.5-0.4-1-1-1c-0.5,0-1,0.4-1,1c0,0.5,0.4,1,1,1
						C20.8,12.7,21.2,12.3,21.2,11.7z M16,18.7c-1.5,0-2.7-1.2-2.7-2.7c0-1.5,1.2-2.7,2.7-2.7c1.5,0,2.7,1.2,2.7,2.7
						C18.7,17.5,17.5,18.7,16,18.7z"/>
				</g>
			</mask>
			<g id="icon_x2F_Social_x2F_instagram-line-Color_x2F_Grayscale_x2F_Night-Sky" style="mask:url(#icon_x2F_Social_x2F_instagram-line-mask-2);">
				<g id="icon_x2F_Social_x2F_instagram-line-Swatch" transform="translate(-8.000000, -8.000000)">
					<rect style="fill:#111111;" width="48" height="48"/>
				</g>
			</g>
		</g>
	</g>
</g>
</svg>
